static/img/kroki/3ca6fa0f68ab998b740538eef173449f.svg

<?xml version="1.0" encoding="us-ascii" standalone="no"?><svg xmlns="http://www.w3.org/2000/svg" xmlns:xlink="http://www.w3.org/1999/xlink" contentStyleType="text/css" height="374px" preserveAspectRatio="none" style="width:361px;height:374px;" version="1.1" viewBox="0 0 361 374" width="361px" zoomAndPan="magnify"><defs/><g><!--class aws_alb--><g id="elem_aws_alb"><rect codeLine="23" fill="#3D176E" height="39.7891" id="aws_alb" rx="2.5" ry="2.5" style="stroke:#000D19;stroke-width:0.5;" width="109" x="125" y="328.58"/><ellipse cx="140" cy="348.4745" fill="#ADD1B2" rx="11" ry="11" style="stroke:#181818;stroke-width:1.0;"/><path d="M142.9688,354.1152 Q142.3906,354.412 141.75,354.5527 Q141.1094,354.7089 140.4063,354.7089 Q137.9063,354.7089 136.5781,353.0683 Q135.2656,351.412 135.2656,348.287 Q135.2656,345.162 136.5781,343.5058 Q137.9063,341.8495 140.4063,341.8495 Q141.1094,341.8495 141.75,342.0058 Q142.4063,342.162 142.9688,342.4589 L142.9688,345.1777 Q142.3438,344.5995 141.75,344.3339 Q141.1563,344.0527 140.5313,344.0527 Q139.1875,344.0527 138.5,345.1308 Q137.8125,346.1933 137.8125,348.287 Q137.8125,350.3808 138.5,351.4589 Q139.1875,352.5214 140.5313,352.5214 Q141.1563,352.5214 141.75,352.2558 Q142.3438,351.9745 142.9688,351.3964 L142.9688,354.1152 Z " fill="#000000"/><text fill="#D9B8FF" font-family="Helvetica" font-size="17" lengthAdjust="spacing" textLength="67" x="159" y="354.3598">aws_alb</text></g><!--class aws_resource--><g id="elem_aws_resource"><rect codeLine="26" fill="#3D176E" height="39.7891" id="aws_resource" rx="2.5" ry="2.5" style="stroke:#000D19;stroke-width:0.5;" width="155" x="7" y="167.79"/><ellipse cx="22" cy="187.6845" fill="#ADD1B2" rx="11" ry="11" style="stroke:#181818;stroke-width:1.0;"/><path d="M24.9688,193.3252 Q24.3906,193.622 23.75,193.7627 Q23.1094,193.9189 22.4063,193.9189 Q19.9063,193.9189 18.5781,192.2783 Q17.2656,190.622 17.2656,187.497 Q17.2656,184.372 18.5781,182.7158 Q19.9063,181.0595 22.4063,181.0595 Q23.1094,181.0595 23.75,181.2158 Q24.4063,181.372 24.9688,181.6689 L24.9688,184.3877 Q24.3438,183.8095 23.75,183.5439 Q23.1563,183.2627 22.5313,183.2627 Q21.1875,183.2627 20.5,184.3408 Q19.8125,185.4033 19.8125,187.497 Q19.8125,189.5908 20.5,190.6689 Q21.1875,191.7314 22.5313,191.7314 Q23.1563,191.7314 23.75,191.4658 Q24.3438,191.1845 24.9688,190.6064 L24.9688,193.3252 Z " fill="#000000"/><text fill="#D9B8FF" font-family="Helvetica" font-size="17" lengthAdjust="spacing" textLength="113" x="41" y="193.5698">aws_resource</text></g><!--class load_balancer--><g id="elem_load_balancer"><rect codeLine="29" fill="#3D176E" height="39.7891" id="load_balancer" rx="2.5" ry="2.5" style="stroke:#000D19;stroke-width:0.5;" width="157" x="197" y="167.79"/><ellipse cx="212" cy="187.6845" fill="#ADD1B2" rx="11" ry="11" style="stroke:#181818;stroke-width:1.0;"/><path d="M214.9688,193.3252 Q214.3906,193.622 213.75,193.7627 Q213.1094,193.9189 212.4063,193.9189 Q209.9063,193.9189 208.5781,192.2783 Q207.2656,190.622 207.2656,187.497 Q207.2656,184.372 208.5781,182.7158 Q209.9063,181.0595 212.4063,181.0595 Q213.1094,181.0595 213.75,181.2158 Q214.4063,181.372 214.9688,181.6689 L214.9688,184.3877 Q214.3438,183.8095 213.75,183.5439 Q213.1563,183.2627 212.5313,183.2627 Q211.1875,183.2627 210.5,184.3408 Q209.8125,185.4033 209.8125,187.497 Q209.8125,189.5908 210.5,190.6689 Q211.1875,191.7314 212.5313,191.7314 Q213.1563,191.7314 213.75,191.4658 Q214.3438,191.1845 214.9688,190.6064 L214.9688,193.3252 Z " fill="#000000"/><text fill="#D9B8FF" font-family="Helvetica" font-size="17" lengthAdjust="spacing" textLength="115" x="231" y="193.5698">load_balancer</text></g><!--class resource--><g id="elem_resource"><rect codeLine="32" fill="#3D176E" height="39.7891" id="resource" rx="2.5" ry="2.5" style="stroke:#000D19;stroke-width:0.5;" width="113" x="123" y="7"/><ellipse cx="138" cy="26.8945" fill="#ADD1B2" rx="11" ry="11" style="stroke:#181818;stroke-width:1.0;"/><path d="M140.9688,32.5352 Q140.3906,32.832 139.75,32.9727 Q139.1094,33.1289 138.4063,33.1289 Q135.9063,33.1289 134.5781,31.4883 Q133.2656,29.832 133.2656,26.707 Q133.2656,23.582 134.5781,21.9258 Q135.9063,20.2695 138.4063,20.2695 Q139.1094,20.2695 139.75,20.4258 Q140.4063,20.582 140.9688,20.8789 L140.9688,23.5977 Q140.3438,23.0195 139.75,22.7539 Q139.1563,22.4727 138.5313,22.4727 Q137.1875,22.4727 136.5,23.5508 Q135.8125,24.6133 135.8125,26.707 Q135.8125,28.8008 136.5,29.8789 Q137.1875,30.9414 138.5313,30.9414 Q139.1563,30.9414 139.75,30.6758 Q140.3438,30.3945 140.9688,29.8164 L140.9688,32.5352 Z " fill="#000000"/><text fill="#D9B8FF" font-family="Helvetica" font-size="17" lengthAdjust="spacing" textLength="71" x="157" y="32.7798">resource</text></g><!--reverse link aws_resource to aws_alb--><g id="link_aws_resource_aws_alb"><path codeLine="35" d="M105.2016,223.2865 C123.4616,253.8065 149.72,297.69 168,328.25 " fill="none" id="aws_resource-backto-aws_alb" style="stroke:#FFAF37;stroke-width:2.0;"/><polygon fill="none" points="95.96,207.84,100.0527,226.367,110.3504,220.2059,95.96,207.84" style="stroke:#FFAF37;stroke-width:2.0;"/></g><!--reverse link load_balancer to aws_alb--><g id="link_load_balancer_aws_alb"><path codeLine="36" d="M254.6079,223.2441 C236.1579,253.7641 209.6,297.69 191.12,328.25 " fill="none" id="load_balancer-backto-aws_alb" style="stroke:#FFAF37;stroke-width:2.0;"/><polygon fill="none" points="263.92,207.84,249.4732,220.14,259.7426,226.3481,263.92,207.84" style="stroke:#FFAF37;stroke-width:2.0;"/></g><!--reverse link resource to aws_resource--><g id="link_resource_aws_resource"><path codeLine="37" d="M158.7984,62.4965 C140.5384,93.0165 114.28,136.9 96,167.46 " fill="none" id="resource-backto-aws_resource" style="stroke:#FFAF37;stroke-width:2.0;"/><polygon fill="none" points="168.04,47.05,153.6496,59.4159,163.9473,65.577,168.04,47.05" style="stroke:#FFAF37;stroke-width:2.0;"/></g><!--reverse link resource to load_balancer--><g id="link_resource_load_balancer"><path codeLine="38" d="M200.3921,62.4541 C218.8421,92.9741 245.4,136.9 263.88,167.46 " fill="none" id="resource-backto-load_balancer" style="stroke:#FFAF37;stroke-width:2.0;"/><polygon fill="none" points="191.08,47.05,195.2574,65.5581,205.5268,59.35,191.08,47.05" style="stroke:#FFAF37;stroke-width:2.0;"/></g><!--SRC=[XP1BRuCm48Jl_0fBEID1evOWzP8YLUqbgfhUemMlWuMnqTeKfO__tj0qbO4yhZFVpivkAJaoh1ktOpNMEP8DR2Lr0mGrMnAPBZFA49i90MAUZCr7ezrLO0KriYTKx-Xa0MFYhPH5fT5QTkDP3r1KMpAjveTuHw3jtaBjF2fJOEtIEP9vwz0hmzDy8SIO78VEvZnExd226U98VqWKHJnEnyZLLHVl_YVMyWDPx3zjPHnEQavM_58NM_Q4Lt9owD4_s_45E9TwosuzxVNGYJJIG5-Nm4tNqmAKzTTOXuJ6xHhC9bTXkk0YEGa_duE3edyTWyvkGENiCmY-FOdGcfOAz7LbW6zoKA2BVMlF6CA3yVklC0oFIu9Xmj0xCNAKnjuW9lW1]--></g></svg>

<svg xmlns="http://www.w3.org/2000/svg" width="361" height="374" viewBox="0 0 361 374"><rect width="109" height="39.789" x="125" y="328.58" fill="#3D176E" rx="2.5" ry="2.5" style="stroke:#000d19;stroke-width:.5"/><circle cx="140" cy="348.474" r="11" fill="#ADD1B2" style="stroke:#181818;stroke-width:1"/><path d="M142.969 354.115q-.578.297-1.219.438-.64.156-1.344.156-2.5 0-3.828-1.64-1.312-1.657-1.312-4.782t1.312-4.781q1.328-1.656 3.828-1.656.703 0 1.344.156.656.156 1.219.453v2.719q-.625-.579-1.219-.844-.594-.281-1.219-.281-1.344 0-2.031 1.078-.687 1.062-.687 3.156t.687 3.172q.688 1.062 2.031 1.062.625 0 1.219-.265.594-.281 1.219-.86z"/><text x="159" y="354.36" fill="#D9B8FF" font-family="Helvetica" font-size="17" textLength="67">aws_alb</text><rect width="155" height="39.789" x="7" y="167.79" fill="#3D176E" rx="2.5" ry="2.5" style="stroke:#000d19;stroke-width:.5"/><circle cx="22" cy="187.685" r="11" fill="#ADD1B2" style="stroke:#181818;stroke-width:1"/><path d="M24.969 193.325q-.578.297-1.219.438-.64.156-1.344.156-2.5 0-3.828-1.64-1.312-1.657-1.312-4.782t1.312-4.781q1.328-1.656 3.828-1.656.703 0 1.344.156.656.156 1.219.453v2.719q-.625-.578-1.219-.844-.594-.281-1.219-.281-1.343 0-2.031 1.078-.687 1.062-.687 3.156t.687 3.172q.688 1.062 2.031 1.062.625 0 1.219-.265.594-.281 1.219-.86z"/><text x="41" y="193.57" fill="#D9B8FF" font-family="Helvetica" font-size="17" textLength="113">aws_resource</text><rect width="157" height="39.789" x="197" y="167.79" fill="#3D176E" rx="2.5" ry="2.5" style="stroke:#000d19;stroke-width:.5"/><circle cx="212" cy="187.685" r="11" fill="#ADD1B2" style="stroke:#181818;stroke-width:1"/><path d="M214.969 193.325q-.578.297-1.219.438-.64.156-1.344.156-2.5 0-3.828-1.64-1.312-1.657-1.312-4.782t1.312-4.781q1.328-1.656 3.828-1.656.703 0 1.344.156.656.156 1.219.453v2.719q-.625-.578-1.219-.844-.594-.281-1.219-.281-1.344 0-2.031 1.078-.687 1.062-.687 3.156t.687 3.172q.688 1.062 2.031 1.062.625 0 1.219-.265.594-.281 1.219-.86z"/><text x="231" y="193.57" fill="#D9B8FF" font-family="Helvetica" font-size="17" textLength="115">load_balancer</text><rect width="113" height="39.789" x="123" y="7" fill="#3D176E" rx="2.5" ry="2.5" style="stroke:#000d19;stroke-width:.5"/><circle cx="138" cy="26.895" r="11" fill="#ADD1B2" style="stroke:#181818;stroke-width:1"/><path d="M140.969 32.535q-.578.297-1.219.438-.64.156-1.344.156-2.5 0-3.828-1.64-1.312-1.657-1.312-4.782t1.312-4.781q1.328-1.656 3.828-1.656.703 0 1.344.156.656.156 1.219.453v2.719q-.625-.578-1.219-.844-.594-.281-1.219-.281-1.344 0-2.031 1.078-.687 1.062-.687 3.156t.687 3.172q.688 1.062 2.031 1.062.625 0 1.219-.265.594-.281 1.219-.86z"/><text x="157" y="32.78" fill="#D9B8FF" font-family="Helvetica" font-size="17" textLength="71">resource</text><path fill="none" d="M105.202 223.287c18.26 30.52 44.518 74.403 62.798 104.963M95.96 207.84l4.093 18.527 10.297-6.161z" style="stroke:#ffaf37;stroke-width:2"/><g fill="none"><path d="M254.608 223.244c-18.45 30.52-45.008 74.446-63.488 105.006" style="stroke:#ffaf37;stroke-width:2"/><path d="m263.92 207.84-14.447 12.3 10.27 6.208z" style="stroke:#ffaf37;stroke-width:2"/></g><path fill="none" d="M158.798 62.497C140.538 93.017 114.28 136.9 96 167.46m72.04-120.41-14.39 12.366 10.297 6.161z" style="stroke:#ffaf37;stroke-width:2"/><g fill="none"><path d="M200.392 62.454c18.45 30.52 45.008 74.446 63.488 105.006" style="stroke:#ffaf37;stroke-width:2"/><path d="m191.08 47.05 4.177 18.508 10.27-6.208z" style="stroke:#ffaf37;stroke-width:2"/></g></svg>
